!!!COM: Anthoni van Noordt
!!!OTL: Fantasia
!!!OMV: 
!!!SCT: 
!!!SCA: 
**kern	**kern	**kern	**kern
*MM100	*MM100	*MM100	*MM100
*e:phr	*e:phr	*e:phr	*e:phr
*clefF4	*clefF4	*clefG2	*clefG2
*k[]	*k[]	*k[]	*k[]
*M2/2	*M2/2	*M2/2	*M2/2
*tb32	*tb32	*tb32	*tb32
=1	=1	=1	=1
1r	2E	1r	1r
.	4E	.	.
.	4F	.	.
=2	=2	=2	=2
1r	8G	1r	1r
.	8A	.	.
.	8G	.	.
.	8F	.	.
.	2E	.	.
=3	=3	=3	=3
1r	4r	1r	1r
.	4A	.	.
.	4A	.	.
.	4G#	.	.
=4	=4	=4	=4
1r	4.A	1r	1r
.	8G	.	.
.	8F	.	.
.	8E	.	.
.	4F	.	.
=5	=5	=5	=5
1r	2E	1r	1r
.	[2c	.	.
=6	=6	=6	=6
1r	4c]	1r	2e
.	4B	.	.
.	4A	.	4e
.	4d	.	4f
=7	=7	=7	=7
1r	4G	1r	8g
.	.	.	8a
.	4G	.	8g
.	.	.	8f
.	8c	.	2e
.	8d	.	.
.	8c	.	.
.	8B	.	.
=8	=8	=8	=8
1r	4A	1r	4r
.	4c	.	4a
.	4d	.	4a
.	4e	.	4g#
=9	=9	=9	=9
1r	4c#	1r	4.a
.	4.d	.	.
.	.	.	8g
.	.	.	8f
.	8c	.	8e
.	8B	.	4f
.	8A	.	.
=10	=10	=10	=10
1r	4G#	1r	2e
.	4.A	.	.
.	.	.	[2cc
.	8G	.	.
.	8F	.	.
.	8E	.	.
=11	=11	=11	=11
1r	2F	2A	4cc]
.	.	.	4b
.	2F	4A	4a
.	.	4B	4dd
=12	=12	=12	=12
1r	2E	8c	4g
.	.	8d	.
.	.	8c	4g
.	.	8B	.
.	4r	2A	8cc
.	.	.	8dd
.	8e	.	8cc
.	8d	.	8b
=13	=13	=13	=13
1r	8c	4r	8a
.	8B	.	8g#
.	8A	4e	8a
.	8G#	.	8b
.	4A	4e	4cc
.	4B	4d#	8b
.	.	.	8a
=14	=14	=14	=14
1r	4E	4.e	4g#
.	4.F	.	4.a
.	.	8d	.
.	.	8c	.
.	8G	8B	8g
.	4A	4c	8e
.	.	.	8f
=15	=15	=15	=15
1r	4E	2B	4g
.	4G	.	4d
.	4C	[2c	4e
.	4D	.	8f
.	.	.	8g
=16	=16	=16	=16
2AA	2E	4c]	4a
.	.	4B	4g
4AA	2r	4A	4f
4BB	.	4d	4f
=17	=17	=17	=17
8C	1r	4G	2e
8D	.	.	.
8C	.	4G	.
8BB	.	.	.
2AA	.	8c	4r
.	.	8d	.
.	.	8c	4e
.	.	8B	.
=18	=18	=18	=18
4r	1r	8A	4a
.	.	8B	.
4E	.	8c	4.g
.	.	8G	.
4E	.	4.B	.
.	.	.	8g
4D#	.	.	4f#
.	.	8A	.
=19	=19	=19	=19
4.E	1r	4G	8e
.	.	.	8d
.	.	4.c	8e
8D	.	.	8f
8C	.	.	4.g
8BB	.	8d	.
4C	.	8e	.
.	.	8f#	8a
=20	=20	=20	=20
2BB	1r	4.g	8b
.	.	.	8cc
.	.	.	2dd
.	.	8f	.
[2G	.	8e	.
.	.	8d	.
.	.	4e	4cc
=21	=21	=21	=21
4G]	2B	2d	2b
4F	.	.	.
4E	4B	4g	2r
4A	4c	4e	.
=22	=22	=22	=22
4D	8d	4f	1r
.	8e	.	.
4D	8d	4f#	.
.	8c	.	.
8G	2B	[2g	.
8A	.	.	.
8G	.	.	.
8F	.	.	.
=23	=23	=23	=23
8E	4r	8g]	1r
8D	.	8g	.
8C	4e	8a	.
8BB	.	8b	.
4AA	4e	4cc	.
4BB	4d#	8b	.
.	.	8a	.
=24	=24	=24	=24
4C	4.e	8g	1r
.	.	8a	.
4G	.	4b	.
.	8d	.	.
2A	8c	4e	.
.	8B	.	.
.	4c	4a	.
=25	=25	=25	=25
4E	2.B	4g	1r
4F	.	8f	.
.	.	8e	.
4G	.	4d	.
8F	4c	4e	.
8E	.	.	.
=26	=26	=26	=26
8D	2d	2f	4r
8E	.	.	.
8F	.	.	4a
8G	.	.	.
4A	4c	[2e	4a
4G#	4B	.	4b
=27	=27	=27	=27
4.A	8A	4e]	8cc
.	8B	.	8dd
.	4.c	4e	8cc
8G	.	.	8b
8F	.	4.f	2a
8E	8c	.	.
4D	8d	.	.
.	8e	8g	.
=28	=28	=28	=28
4d	8f	8a	4r
.	8g	8b	.
4A	4a	4cc	4ee
4B	4g	4.b	4ee
4B	4f#	.	4dd#
.	.	8a	.
=29	=29	=29	=29
4c	2.e	8g	4.ee
.	.	8a	.
4G#	.	4b	.
.	.	.	8dd
2A	.	2a	8cc
.	.	.	8b
.	[4e	.	4cc
=30	=30	=30	=30
2E	8e]	4g	2b
.	8d	.	.
.	8c	4e	.
.	8B	.	.
2r	4c	4e	4r
.	8B	4f#	4a
.	8A	.	.
=31	=31	=31	=31
2r	4G	8g	4b
.	.	8a	.
.	4B	8g	4dd
.	.	8f	.
4r	4c	2e	8cc
.	.	.	8dd
8A	[4c	.	8cc
8G	.	.	8b
=32	=32	=32	=32
8F	8c]	4r	4a
8E	8c	.	.
4D	8d	4a	4ff
.	8c	.	.
4E	8B	4a	4.ee
.	8A	.	.
4E	4B	4g#	.
.	.	.	8dd
=33	=33	=33	=33
4F	1A	4.a	8cc
.	.	.	8dd
4C#	.	.	2ee
.	.	8g	.
2D	.	8f	.
.	.	8e	.
.	.	4f	[4dd
=34	=34	=34	=34
2AA	4r	4e	8dd]
.	.	.	8dd
.	4A	4f#	4.cc
2r	8e	4g#	.
.	8d	.	8b
.	8c	[4a	4cc
.	16B	.	.
.	16A	.	.
=35	=35	=35	=35
4r	4.e	4a]	2b
4E	.	4g	.
.	8d	.	.
4E	8c	4e	2r
.	8B	.	.
4F	4A	4a	.
=36	=36	=36	=36
8G	2B	4d	1r
8A	.	.	.
8G	.	4g	.
8F	.	.	.
2E	4r	8g	.
.	.	8a	.
.	4c	8g	.
.	.	8f	.
=37	=37	=37	=37
4r	8c	2e	4r
.	8d	.	.
4A	8c	.	4ee
.	8B	.	.
4A	4A	2e	8ee
.	.	.	8ff
4G#	4B	.	8ee
.	.	.	8dd
=38	=38	=38	=38
4.A	4c	1r	8cc
.	.	.	8dd
.	2e	.	8cc
8G	.	.	8b
8F	.	.	[4a
8E	.	.	.
4F	[4d	.	16a]
.	.	.	16cc
.	.	.	16b
.	.	.	16a
=39	=39	=39	=39
1E	8d]	1r	4g#
.	16c	.	.
.	16B	.	.
.	8c	.	4a
.	16B	.	.
.	16A	.	.
.	2G#	.	8b
.	.	.	8cc
.	.	.	8dd
.	.	.	8ee
=40	=40	=40	=40
2AA	4A	4r	1cc
.	8A	4e	.
.	8B	.	.
2r	4c	4e	.
.	8B	4f#	.
.	8A	.	.
=41	=41	=41	=41
4r	4e	8g	1b
.	.	8a	.
8E	4B	8g	.
8F	.	8f	.
4G	2r	2e	.
8F	.	.	.
8E	.	.	.
=42	=42	=42	=42
8A	4c	4r	2r
8G	.	.	.
8F	8d	4a	.
8E	8e	.	.
4D	4f	4a	4r
4E	4e	4g#	8b
.	.	.	8cc
=43	=43	=43	=43
2F.	4d	4.a	4dd
.	8A	.	8cc
.	8B	8g	8b
.	4c	8f	4a
.	.	8e	.
4D	8B	4f	4dd
.	8A	.	.
=44	=44	=44	=44
4.A	4.c	2e	4ee
.	.	.	8a
8G#	8B	.	8b
2A	2A	4r	4cc
.	.	8e	8b
.	.	8f#	8a
=45	=45	=45	=45
4E	4r	2g	2b
8E	4B	.	.
8F#	.	.	.
4G	4B	4d	2r
8F	4c	4e	.
8E	.	.	.
=46	=46	=46	=46
4B	8d	8f#	2r
.	8e	8g	.
4F#	8d	4a	.
.	8c	.	.
2G	2B	8g	4r
.	.	8a	.
.	.	8g	4dd
.	.	8f	.
=47	=47	=47	=47
4.A	4r	8e	8cc
.	.	8d	8b
.	4e	8c	4a
8G	.	8B	.
8F#	4e	4A	4.a
8E	.	.	.
4F#	4d#	4A	.
.	.	.	8b
=48	=48	=48	=48
2E	4.e	4A	4cc
.	.	4G#	2b
.	8d	.	.
2AA	8c	2A	.
.	8B	.	.
.	4c	.	4a
=49	=49	=49	=49
4.E	2B	1r	4g#
.	.	.	4e
8D	.	.	.
4C	2c	.	4e
8BB	.	.	4f#
8AA	.	.	.
=50	=50	=50	=50
2E	2B	4r	8g
.	.	.	8a
.	.	8e	8g
.	.	8d	8f
4.A	2r	8c	2e
.	.	8d	.
.	.	8c	.
8G	.	8B	.
=51	=51	=51	=51
8F	4r	4A	4r
8E	.	.	.
8D	4A	8f	4a
8C	.	8e	.
8BB	4B	4d	4a
8AA	.	.	.
4BB	4B	4d	4g#
=52	=52	=52	=52
1AA	4E	2c#	4.a
.	8F	.	.
.	8G	.	8g
.	2A	[2d	8f
.	.	.	8e
.	.	.	4f
=53	=53	=53	=53
4r	2A	4d]	2e
4AA	.	8c	.
.	.	8B	.
4AA	2r	4c	2a
4BB	.	4d	.
=54	=54	=54	=54
8C	1r	4.e	4g
8D	.	.	.
8C	.	.	8a
8BB	.	8d	8b
2AA	.	8e	4.cc
.	.	8f	.
.	.	8e	.
.	.	8d	8b
=55	=55	=55	=55
4r	1r	8c	4a
.	.	8A	.
4E	.	8B	4.g
.	.	8c	.
4E	.	4.B	.
.	.	.	8a
4D#	.	.	[4b
.	.	8F#	.
=56	=56	=56	=56
4.E	1r	8G	8b]
.	.	8A	8a
.	.	4B	8g
8D	.	.	8f#
8C	.	2e	4g
8BB	.	.	.
4C	.	.	[4a
=57	=57	=57	=57
2.BB	1r	4d#	4a]
.	.	2e	4g
.	.	.	2f#
8BB	.	[4d	.
8AA	.	.	.
=58	=58	=58	=58
4GG	4r	8d]	2e
.	.	8d	.
4.AA	4E	8c	.
.	.	8B	.
.	4E	4c	4.a
8AA	.	.	.
4D	4F	4d	.
.	.	.	8b
=59	=59	=59	=59
4C	8G	8e	2cc
.	8A	8c	.
4.C	8G	8e	.
.	8F	8f	.
.	2E	2g	4r
8D	.	.	.
8C	.	.	[4cc
8BB	.	.	.
=60	=60	=60	=60
2AA	4r	4r	8cc]
.	.	.	8dd
.	4A	8e	8cc
.	.	8d	8b
2r	4A	4c	8.a
.	.	.	32g#
.	.	.	32a
.	4G#	4B	8b
.	.	.	[8e
=61	=61	=61	=61
1r	4.A	2c	8e]
.	.	.	8d
.	.	.	4e
.	8G	.	.
.	8F	4d	8f
.	8E	.	8g
.	4F	8c	4a
.	.	8d	.
=62	=62	=62	=62
1r	4E	4e	4g#
.	8F	4A	4.a
.	8E	.	.
.	8F	4A	.
.	8D	.	8a
.	4G	4B	8g
.	.	.	8f
=63	=63	=63	=63
4r	2A	8c	4e
.	.	8d	.
4AA	.	8c	4.a
.	.	8B	.
8F	4r	2A	.
8G	.	.	8b
8F	4A	.	4cc
8E	.	.	.
=64	=64	=64	=64
4D	8B	4r	8dd
.	8A	.	8cc
4E	4G	4e	4b
4F#	4.A	4e	[2a
4F#	.	4d#	.
.	8B	.	.
=65	=65	=65	=65
2E	4c	4.e	4a]
.	4B	.	2g
.	.	8d	.
2AA	2A	8c	.
.	.	8B	.
.	.	4c	[4f
=66	=66	=66	=66
1GG	4D	4B	4f]
.	8E	2c	4e
.	8F	.	.
.	2G	.	2d
.	.	4B	.
=67	=67	=67	=67
1C	1G	2c	8e
.	.	.	8g
.	.	.	8e
.	.	.	8f
.	.	8r	4g
.	.	8e	.
.	.	8c	4a
.	.	8d	.
=68	=68	=68	=68
1r	8r	4e	4g
.	8c	.	.
.	8A	4f	4.cc
.	8B	.	.
.	4c	4e	.
.	.	.	8b
.	8d	8f	4a
.	8c	8e	.
=69	=69	=69	=69
8r	4B	4d	2g
8G	.	.	.
8E	4c	4e	.
8F	.	.	.
4G	8B	8d	2r
.	8e	8g	.
4A	8c	8e	.
.	8d	8f	.
=70	=70	=70	=70
8G	4.e	4g	1r
8E	.	.	.
8C	.	4a	.
8D	8f	.	.
4E	8c	4g	.
.	8B	.	.
4F	4A	4f	.
=71	=71	=71	=71
4C	8G	4e	4r
.	8c	.	.
8F	8A	4f	4a
8G	8B	.	.
4A	4c	8e	4a
.	.	8f#	.
8G	4d	[4g	4b
8F	.	.	.
=72	=72	=72	=72
4E	4G	8g]	8cc
.	.	8g	8dd
4.F	4c	8a	8cc
.	.	8g	8b
.	4.d	4.f	2a
8E	.	.	.
4D	.	.	.
.	8c	8e	.
=73	=73	=73	=73
8G	8B	4d	4r
8F	8A	.	.
4E	4G	8g	4ee
.	.	8f	.
8A	8c	4e	4ee
8G	8B	.	.
4F#	4A	4f#	4dd#
=74	=74	=74	=74
8E	4B	4g#	4.ee
8D	.	.	.
8C	4A	4.a	.
8BB	.	.	8dd
4AA	2r	.	8cc
.	.	8g	8b
4A	.	8f	4cc
.	.	8e	.
=75	=75	=75	=75
8B	1r	4d	2b
8A	.	.	.
8G	.	4.g	.
8F	.	.	.
8E	.	.	4.cc
8D	.	8f	.
4C	.	8e	.
.	.	8d	8b
=76	=76	=76	=76
4.F	4r	4c	2a
.	4A	4.f	.
8E	.	.	.
4D	4A	.	8dd
.	.	8e	8cc
4G	4B	4d	8b
.	.	.	8a
=77	=77	=77	=77
1r	8c	[2e	4g
.	8d	.	.
.	8c	.	8a
.	8B	.	8b
.	2A	8e]	4cc
.	.	8d	.
.	.	8e	8b
.	.	8f#	8a
=78	=78	=78	=78
8E	4r	2.g	4b
8D	.	.	.
8E	4e	.	4cc
8F	.	.	.
8G	4e	.	4.b
8A	.	.	.
4B	4d#	4f#	.
.	.	.	8a
=79	=79	=79	=79
8E	4.e	2e	8g#
8F#	.	.	8a
4G#	.	.	4b
.	8d	.	.
2A	8c	4r	4a
.	8B	.	.
.	4c	8e	4ee
.	.	8f#	.
=80	=80	=80	=80
4r	4B	4g	4dd
4E	4G	4.g	4cc
4E	8c	.	4r
.	8B	8g	.
4F	4A	8f	4cc
.	.	8e	.
=81	=81	=81	=81
8G	4B	4.d	4.b
8A	.	.	.
8G	4B	.	.
8F	.	8d	8a
2E	8c	8e	4g
.	8d	8f	.
.	8c	8e	8a
.	8B	8d	8b
=82	=82	=82	=82
4r	8A	4a	4.cc
.	8B	.	.
4A	8c	4e	.
.	8d	.	8b
4A	4.e	4a	8cc
.	.	.	8dd
4G#	.	4b	[4ee
.	8B	.	.
=83	=83	=83	=83
4.A	2.c	4e	8ee]
.	.	.	8dd
.	.	2e	8cc
8G	.	.	8b
8F	.	.	4.a
8E	.	.	.
4F	8B	4d	.
.	8A	.	8a
=84	=84	=84	=84
4.E	2B	4e	2g#
.	.	4e	.
8D	.	.	.
4C#	2A	4e	4.a
4D	.	4f	.
.	.	.	8b
=85	=85	=85	=85
2E	4G	8g	4cc
.	.	8a	.
.	4.c	8g	4.ee
.	.	8f	.
2r	.	2e	.
.	8B	.	8dd
.	4A	.	8cc
.	.	.	16b
.	.	.	16a
=86	=86	=86	=86
4r	8G#	4r	4.ee
.	16A	.	.
.	16B	.	.
4C	4c	4a	.
.	.	.	8ee
4D	4B	4a	4ff
4E	4B	4g#	8ee
.	.	.	8dd
=87	=87	=87	=87
4.F	8A	4.a	4.cc
.	8B	.	.
.	4.c	.	.
8G	.	8g	8b
4A	.	8f	4a
.	8c	8e	.
4D	8d	4f	8b
.	8c	.	8a
=88	=88	=88	=88
1E	4B	4.e	4g#
.	4A	.	2a
.	.	8f	.
.	2B	8g	.
.	.	8f	.
.	.	8e	4g#
.	.	8d	.
=89	=89	=89	=89
8r	1A	4.c#	1a
8AA	.	.	.
8AA	.	.	.
8BB	.	8d	.
8C	.	8e	.
8D	.	8f	.
8C	.	8e	.
8BB	.	8d	.
=90	=90	=90	=90
4AA	1r	2.c	8r
.	.	.	8e
4A	.	.	8e
.	.	.	8f
4.E	.	.	8g
.	.	.	8a
.	.	4B	8g
8D	.	.	8f
=91	=91	=91	=91
4C	8r	4c	4e
.	8E	.	.
4AA	8E	4c	4a
.	8F	.	.
4E	8G	4B	2g
.	8A	.	.
4BB	8G	4d	.
.	8F	.	.
=92	=92	=92	=92
4C#	4E	8e	2a
.	.	8A	.
4D	4F	8A	.
.	.	8B	.
2AA	4.E	8c	2r
.	.	8d	.
.	.	8c	.
.	8D	8B	.
=93	=93	=93	=93
1r	4C#	4A	8r
.	.	.	8e
.	4.E	8G#	8e
.	.	8A	8f
.	.	4B	8g
.	8F	.	8a
.	4G	4B	8g
.	.	.	8f
=94	=94	=94	=94
8r	2A	1c	1e
8AA	.	.	.
8AA	.	.	.
8BB	.	.	.
8C	8r	.	.
8D	8A	.	.
8C	8A	.	.
8BB	8B	.	.
=95	=95	=95	=95
4AA	8c	1r	8r
.	8d	.	8a
4F	8c	.	8a
.	8B	.	8b
4.F	4A	.	8cc
.	.	.	8dd
.	[4c	.	8cc
8G	.	.	8b
=96	=96	=96	=96
2A	4c]	8r	4a
.	.	8e	.
.	4c	8e	4cc
.	.	8f#	.
2G	4d	8g	4b
.	.	8a	.
.	4B	8g	4dd
.	.	8f	.
=97	=97	=97	=97
8r	2c	2e	4cc
8E	.	.	.
8E	.	.	2g
8F	.	.	.
8G	[2B	2d	.
8A	.	.	.
8G	.	.	[4g
8F	.	.	.
=98	=98	=98	=98
8E	4B]	1e	8g]
8D	.	.	8a
8C	8A	.	8a
8BB	8G#	.	8b
4AA	8A	.	8cc
.	8B	.	8dd
8A	[4c	.	8cc
8G	.	.	8b
=99	=99	=99	=99
4.F	8c]	8r	2.a
.	8B	8d	.
.	4A	8d	.
8E	.	8e	.
4D	2r	8f	.
.	.	8g	.
4C#	.	8f	8a
.	.	8e	8g
=100	=100	=100	=100
4D	8r	4d	4f
.	8A	.	.
4AA	8A	4.e	4cc
.	8B	.	.
2r	8c	.	2g
.	8d	8f	.
.	8c	8e	.
.	8B	8d	.
=101	=101	=101	=101
8r	4A	8c	1r
8D	.	4f	.
8D	4.A	.	.
8E	.	8e	.
8F	.	4d	.
8G	8B	.	.
8F	4c	8a	.
8E	.	8g	.
=102	=102	=102	=102
2D	8d	16f	2r
.	.	16g	.
.	8c	16e	.
.	.	16f	.
.	8B	16d	.
.	.	16e	.
.	8A	16c	.
.	.	16d	.
[2E	4G#	4B	8r
.	.	.	8e
.	4A	8c	8e
.	.	8d	8f
=103	=103	=103	=103
4E]	4B	4.e	8g
.	.	.	8a
4r	4E	.	8g
.	.	8d	8f
2r	4A	4c	8e
.	.	.	8a
.	4B	8d	8a
.	.	8e	8g#
=104	=104	=104	=104
1r	4A	8f	8.a
.	.	8c#	.
.	.	.	16g
.	8r	4d	16f
.	.	.	16e
.	8D	.	8f
.	8A	4c	8.e
.	8E	.	.
.	.	.	16f
.	8E	8B	8g
.	8F	8A	8a
=105	=105	=105	=105
1r	8G	4B	4d
.	8A	.	.
.	8G	4B	4dd
.	8F	.	.
.	8E	4c	8.cc
.	8A	.	.
.	.	.	16dd
.	8A	8d	4b
.	8G#	8e	.
=106	=106	=106	=106
1r	8.A	8f	4.a
.	.	8c#	.
.	16G	.	.
.	16F	[4d	.
.	16E	.	.
.	8F	.	8a
.	2E	16d]	8g#
.	.	16c	.
.	.	16B	8a
.	.	16A	.
.	.	4G#	16b
.	.	.	16cc
.	.	.	16dd
.	.	.	16ee
=107	=107	=107	=107
8r	1r	4A	4.cc
8AA	.	.	.
8AA	.	4e	.
8BB	.	.	16b
.	.	.	16a
8C	.	4.e	4g
8D	.	.	.
8C	.	.	8a
8BB	.	8d	8b
=108	=108	=108	=108
8AA	1r	8.e	4cc
8E	.	.	.
.	.	16g	.
8E	.	4f#	4.b
8D#	.	.	.
8.E	.	4.g	.
.	.	.	8b
16D	.	.	.
16C	.	.	[4ee
16BB	.	.	.
8C	.	8e	.
=109	=109	=109	=109
2BB	8r	4f#	4ee]
.	8B	.	.
.	8B	4.f#	2dd
.	8c	.	.
4B	8d	.	.
.	8e	8g	.
4F#	8d	4a	[4dd
.	8c	.	.
=110	=110	=110	=110
8G	8B	4g	8dd]
8A	8e	.	8cc
4B	8e	4f#	8.b
.	8d#	.	.
.	.	.	16a
2E	8.e	2e	4g#
.	16d	.	.
.	16c	.	4a
.	16B	.	.
.	8c	.	.
=111	=111	=111	=111
1E	4B	8r	4g#
.	.	8e	.
.	4c	8e	4.ee
.	.	8f	.
.	4B	8g	.
.	.	8a	8dd
.	8e	8g	[4cc
.	8d	8f	.
=112	=112	=112	=112
1r	8c	8e	8cc]
.	8A	8a	8cc
.	4e	8a	4b
.	.	8g#	.
.	4c#	8.a	2a
.	.	16g	.
.	4d	16f	.
.	.	16e	.
.	.	8f	.
=113	=113	=113	=113
8r	4c	8.e	1r
8E	.	.	.
.	.	16f	.
8E	8B	8g	.
8F	8A	8a	.
8G	4B	4d	.
8A	.	.	.
8G	4B	8g	.
8F	.	8a	.
=114	=114	=114	=114
8E	4c	8g	1r
8A	.	8f	.
8A	4B	2e	.
8G#	.	.	.
8.A	4c	.	.
16G	.	.	.
16F	4A	4d	.
16E	.	.	.
8F	.	.	.
=115	=115	=115	=115
2E	4G#	8e	8r
.	.	8B	8e
.	4A	8c	8e
.	.	8d	8f
4.E	4B	2e	8g
.	.	.	8a
.	[4c	.	8g
8D	.	.	8f
=116	=116	=116	=116
4C	4c]	2r	8e
.	.	.	8a
4BB	4d	.	8a
.	.	.	8g#
4AA	4c	4r	8.a
.	.	.	16g
4D	4A	4d	16f
.	.	.	16e
.	.	.	8f
=117	=117	=117	=117
8.E	4G#	4B	1e
16D	.	.	.
16C	4A	4.c	.
16BB	.	.	.
8AA	.	.	.
4GG#	4.E	.	.
.	.	8B	.
4AA	.	4c	.
.	8A	.	.
=118	=118	=118	=118
1E;	1G#;	1B;	1e;
==	==	==	==
*-	*-	*-	*-
!!!ENC: Peter van Kranenburg (peter@musical-style-recognition.net)
!!!END: 2020-01-09
